X: 12770
T: Father Tom's Wager
R: jig
M: 6/8
K: Gmajor
dge dBG|AEF GDB,|G,B,D GBd|~c3 ABc|
dge dBG|AEF GDB,|G,B,D GBd|cAF G2c:|
|:Bdg bag|fed cAF|DGG FGA|BGB ABc|
Bdg bag|fed ^cde|fed cAF|AGF G2c:|

